X:1
T:Title
%%score ( 1 2 ) { 3 | 4 }
L:1/8
Q:1/4=105
M:4/4
K:Eb
V:1 treble nm="Grand Piano, Soprano"
V:2 treble 
V:3 bass nm="Choir Pad, Sunnyvale, M. Towne, 1878"
V:4 bass 
V:1
 [B,E]2 [B,E]2 EFGA | [EB]3 [Ec] [EB]2 [EG]2 | [Ec]2 [EB]2 [EA][EG][EF]E | [EG]4 [DF]2 z2 | %4
w: By~Thomas~Martin~Towne,~1878 * * * * *||||
 [B,E]2 [B,E]2 E[DF][EG][FA] | [GB]3 [Ac] [GB]2 [EG]2 | [GB][Ge][Gd][Gc] [FB]2 [F=A]2 | [FB]6 z2 | %8
w: ||||
 [Ad]2 [Ad]2 [Ac]2 [AB]2 | [Gc]2 [GB]2 [_G=A]2 [=GB]2 | e2 B2 AGFE | [DB]3 [DB] [DB]2 z2 | %12
w: ||||
 [Ad]2 [Ad]2 [Ac]2 [AB]2 | [Gc]2 [GB]2 [_G=A]2 [=GB]2 | [Ge]2 [EG]2 [EF]3 [Ec] | %15
w: |||
 [EB]2 [B,D]2 [B,E]2 z2 | EFGE B<.B z2 | Bcd[AB] [Ge]<.[Ge] z2 | CDEC G2 [Gc]2 | %19
w: ||||
 [Ge]2 d-[Fd] [Ec]2 z2 | EFGE B<.B z2 | Bcd[AB] [Ge]<.[Ge] z2 | EGB[Ge] [Fe]2 [Ad]2 | [Ge]8 |] %24
w: |||||
V:2
 z4 z2 E2 | x8 | x8 | x8 | x8 | x8 | x8 | x8 | x8 | x8 | x8 | x8 | x8 | x8 | x8 | x8 | x8 | A4 z4 | %18
 x8 | z2 .G2 z4 | x8 | A4 z4 | x8 | x8 |] %24
V:3
 G,2 G,2 G,A,B,C | G,3 A, G,2 B,2 | A,2 B,2 B,B,CC | B,6 z2 | G,2 G,2 B,2 B,2 | %5
 B,3[K:treble] E E2 B,2 | B,C=B,C D2 E2 | D6 z2 | F2 F2 E2 D2 | E2 E2 E2 E2 | %10
 E2[K:bass] B,2 A,G,F,E, | B,3 F, F,2 z2 | F2 F2 E2 D2 | E2 E2 E2 E2 | B,2 _D2 C3 A, | %15
 G,2 F,2 G,2 z2 | E,F,G,E, B,<.B, z2 | DEFD E<.E z2 | C,D,E,C, G,2 C2 | C2 =B,2 C2 z2 | %20
 E,F,G,E, B,<.B, z2 | DEFD E<.E z2 | E,G,B,B, C2 B,2 | B,8 |] %24
V:4
 E,2 E,2 E,2 E,2 | E,3 E, E,2 E,2 | z2 G,2 F,G,A,=A, | z8 | E,2 E,2 G,A,G,F, | E,3 E, E,2 E,2 | %6
 E,C,D,E, F,2 F,2 | B,,6 z2 | B,2 B,2 B,2 B,2 | E,2 E,2 E,2 E,2 | E,2 z2 z4 | z2 z B,, B,,2 z2 | %12
 B,2 B,2 B,2 B,2 | E,2 E,2 E,2 E,2 | E,2 E,2 A,,3 A,, | B,,2 B,,2 E,2 z2 | z8 | B,3 B, E,<.E, z2 | %18
 z4 z2 G,2 | G,2 G,2 C,2 z2 | z8 | B,3 B, E,<.E, z2 | z2 z G, A,2 z2 | E,8 |] %24

